themes/default/assets/images/icons/micro/micro-icon-illustration.svg

<?xml version="1.0" encoding="UTF-8"?>
<svg width="32px" height="32px" viewBox="0 0 32 32" version="1.1" xmlns="http://www.w3.org/2000/svg" xmlns:xlink="http://www.w3.org/1999/xlink">
    <!-- Generator: sketchtool 59 (101010) - https://sketch.com -->
    <title>9C01BFCD-988D-4D15-9D94-7ADA7A9AF819</title>
    <desc>Created with sketchtool.</desc>
    <g id="Page-1" stroke="none" stroke-width="1" fill="none" fill-rule="evenodd">
        <g id="Icons" transform="translate(-306.000000, -1329.000000)" fill-rule="nonzero">
            <g id="micro-icon-illustration" transform="translate(306.000000, 1329.000000)">
                <path d="M16.57,6.55515152 L16.57,6.55515152 L16.57,6.55515152 L16.57,6.55515152 L16.47,6.46787879 L16.47,6.41939394 L16.47,6.41939394 L16.42,6.41939394 L16.29,6.41939394 L16.23,6.41939394 L15.97,6.41939394 L15.91,6.41939394 C15.867225,6.40985426 15.822775,6.40985426 15.78,6.41939394 L15.78,6.41939394 L15.78,6.41939394 L15.78,6.46787879 L15.68,6.55515152 L15.68,6.55515152 L15.68,6.55515152 L15.68,6.55515152 L6.87,18.7733333 L7.13,19.1418182 C7.13,19.190303 10.34,23.8545455 10.34,28.5187879 L10.34,31.3406061 C10.34,31.7047793 10.6444464,32 11.02,32 C11.3955536,32 11.7,31.7047793 11.7,31.3406061 L11.7,28.5187879 C11.7,28.4218182 11.7,28.3345455 11.7,28.2472727 L20.32,28.2472727 C20.32,28.3345455 20.32,28.4218182 20.32,28.5187879 L20.32,31.3406061 C20.32,31.7047793 20.6244464,32 21,32 C21.3755536,32 21.68,31.7047793 21.68,31.3406061 L21.68,28.5187879 C21.68,23.8545455 24.86,19.190303 24.89,19.1418182 L25.15,18.7733333 L16.57,6.55515152 Z M20.4,26.9187879 L11.6,26.9187879 C11.1409448,24.0324236 10.0866149,21.2654002 8.5,18.7830303 L15.32,9.08606061 L15.32,15.1563636 C15.32,15.5205369 15.6244464,15.8157576 16,15.8157576 C16.3755536,15.8157576 16.68,15.5205369 16.68,15.1563636 L16.68,9.04727273 L23.5,18.7442424 C21.9071015,21.2412307 20.8525462,24.0253392 20.4,26.9284848 L20.4,26.9187879 Z" id="Shape" fill="#A8C5DD"></path>
                <path d="M16,19.52 C14.7463136,19.52 13.73,18.5344838 13.73,17.3187879 C13.73,16.103092 14.7463136,15.1175758 16,15.1175758 C17.2536864,15.1175758 18.27,16.103092 18.27,17.3187879 C18.27,18.5344838 17.2536864,19.52 16,19.52 Z M16,16.4266667 C15.491898,16.4266667 15.08,16.8260829 15.08,17.3187879 C15.08,17.8114928 15.491898,18.2109091 16,18.2109091 C16.508102,18.2109091 16.92,17.8114928 16.92,17.3187879 C16.92,16.8260829 16.508102,16.4266667 16,16.4266667 Z" id="Shape" fill="#032663"></path>
                <path d="M27.47,0.96969697 L27.47,2.51151515 L18.15,2.51151515 C18.0480092,2.17075057 17.8588113,1.8605286 17.6,1.60969697 L17.6,1.60969697 C17.1760112,1.19755691 16.60034,0.965934833 16,0.965934833 C15.39966,0.965934833 14.8239888,1.19755691 14.4,1.60969697 C14.1415911,1.8570129 13.9523209,2.16401646 13.85,2.50181818 L4.53,2.50181818 L4.53,0.96969697 L0,0.96969697 L0,5.36242424 L4.53,5.36242424 L4.53,3.82060606 L13.85,3.82060606 C13.9519908,4.16137064 14.1411887,4.47159261 14.4,4.72242424 C14.9553073,5.27345457 15.7700785,5.49800568 16.5412451,5.31255179 C17.3124117,5.1270979 17.9245636,4.55939341 18.15,3.82060606 L27.47,3.82060606 L27.47,5.36242424 L32,5.36242424 L32,0.96969697 L27.47,0.96969697 Z M3.19,4.0630303 L1.34,4.0630303 L1.34,2.26909091 L3.19,2.26909091 L3.19,4.0630303 Z M16.65,3.80121212 C16.2908411,4.1489118 15.7091589,4.1489118 15.35,3.80121212 C15.0902971,3.54361047 15.0136085,3.16084692 15.1549498,2.82768998 C15.2962911,2.49453304 15.6285428,2.27490644 16,2.26908585 C16.2441109,2.26828996 16.478318,2.36262794 16.65,2.53090909 L16.65,2.53090909 C17.0097223,2.88250437 17.0097223,3.44961684 16.65,3.80121212 L16.65,3.80121212 Z M30.65,4.0630303 L28.81,4.0630303 L28.81,2.26909091 L30.66,2.26909091 L30.65,4.0630303 Z" id="Shape" fill="#2969F6"></path>
            </g>
        </g>
    </g>
</svg>

<svg width="32" height="32" xmlns="http://www.w3.org/2000/svg"><g fill-rule="nonzero" fill="none"><path d="M16.57 6.555l-.1-.087v-.049h-.56a.299.299 0 00-.13 0v.049l-.1.087-8.81 12.218.26.369c0 .048 3.21 4.713 3.21 9.377v2.822c0 .364.304.659.68.659a.67.67 0 00.68-.66V28.52v-.272h8.62V31.341c0 .364.304.659.68.659a.67.67 0 00.68-.66V28.52c0-4.664 3.18-9.329 3.21-9.377l.26-.369-8.58-12.218zM20.4 26.92h-8.8a21.324 21.324 0 00-3.1-8.136l6.82-9.697v6.07c0 .365.304.66.68.66a.67.67 0 00.68-.66V9.047l6.82 9.697a21.322 21.322 0 00-3.1 8.184v-.01z" fill="#A8C5DD"/><path d="M16 19.52c-1.254 0-2.27-.986-2.27-2.201 0-1.216 1.016-2.201 2.27-2.201s2.27.985 2.27 2.2c0 1.216-1.016 2.202-2.27 2.202zm0-3.093c-.508 0-.92.4-.92.892s.412.892.92.892.92-.4.92-.892c0-.493-.412-.892-.92-.892z" fill="#032663"/><path d="M27.47.97v1.542h-9.32a2.092 2.092 0 00-.55-.902c-.424-.412-1-.644-1.6-.644-.6 0-1.176.232-1.6.644a2.064 2.064 0 00-.55.892H4.53V.97H0v4.392h4.53V3.821h9.32c.102.34.291.65.55.901.555.551 1.37.776 2.141.59a2.211 2.211 0 001.609-1.491h9.32v1.541H32V.97h-4.53zM3.19 4.063H1.34V2.269h1.85v1.794zm13.46-.262a.94.94 0 01-1.3 0 .882.882 0 01-.195-.973.925.925 0 011.495-.297c.36.352.36.919 0 1.27zm14 .262h-1.84V2.269h1.85l-.01 1.794z" fill="#2969F6"/></g></svg>
